lib/flags/s/WS.svg

<svg xmlns="http://www.w3.org/2000/svg" fill="none" viewBox="0 0 16 12"><mask id="WS_svg__a" width="16" height="12" x="0" y="0" mask-type="alpha" maskUnits="userSpaceOnUse"><path fill="#fff" d="M0 0H16V12H0z"/></mask><g mask="url(#WS_svg__a)"><path fill="#C51918" fill-rule="evenodd" d="M0 0V12H16V0H0Z" clip-rule="evenodd"/><mask id="WS_svg__b" width="16" height="12" x="0" y="0" mask-type="alpha" maskUnits="userSpaceOnUse"><path fill="#fff" fill-rule="evenodd" d="M0 0V12H16V0H0Z" clip-rule="evenodd"/></mask><g fill-rule="evenodd" clip-rule="evenodd" mask="url(#WS_svg__b)"><path fill="#2E42A5" d="M0 0V7H8V0H0Z"/><path fill="#FEFFFF" d="M1.78284 3.88588 1.25281 4.20586 1.37371 3.58146.932327 3.11416 1.52998 3.08889 1.78284 2.50586 2.03569 3.08889H2.63233L2.19196 3.58146 2.32454 4.20586 1.78284 3.88588zM5.78284 3.88588 5.25281 4.20586 5.37371 3.58146 4.93233 3.11416 5.52998 3.08889 5.78284 2.50586 6.03569 3.08889H6.63233L6.19196 3.58146 6.32454 4.20586 5.78284 3.88588zM3.73281 2.06887 3.23396 2.37002 3.34774 1.78235 2.93233 1.34254 3.49482 1.31876 3.73281.77002 3.97079 1.31876H4.53233L4.11787 1.78235 4.24264 2.37002 3.73281 2.06887zM4.27313 4.21266 3.96135 4.40088 4.03246 4.03359 3.77283 3.7587 4.12439 3.74384 4.27313 3.40088 4.42186 3.74384H4.77283L4.51379 4.03359 4.59178 4.40088 4.27313 4.21266zM3.70438 6.41409 2.95611 6.86582 3.12679 5.98432 2.50366 5.3246 3.34741 5.28893 3.70438 4.46582 4.06135 5.28893H4.90366L4.28197 5.98432 4.46914 6.86582 3.70438 6.41409z"/></g></g></svg>

<svg xmlns="http://www.w3.org/2000/svg" fill="none" viewBox="0 0 16 12"><mask id="WS_svg__a" width="16" height="12" x="0" y="0" maskUnits="userSpaceOnUse"><path fill="#fff" d="M0 0h16v12H0z"/></mask><g mask="url(#WS_svg__a)"><path fill="#C51918" fill-rule="evenodd" d="M0 0v12h16V0H0z" clip-rule="evenodd"/><mask id="WS_svg__b" width="16" height="12" x="0" y="0" maskUnits="userSpaceOnUse"><path fill="#fff" fill-rule="evenodd" d="M0 0v12h16V0H0z" clip-rule="evenodd"/></mask><g fill-rule="evenodd" clip-rule="evenodd" mask="url(#WS_svg__b)"><path fill="#2E42A5" d="M0 0v7h8V0H0z"/><path fill="#FEFFFF" d="M1.783 3.886l-.53.32.12-.624-.44-.468.597-.025.253-.583.253.583h.596l-.44.493.133.624-.542-.32zm4 0l-.53.32.12-.624-.44-.468.597-.025.253-.583.253.583h.596l-.44.493.133.624-.542-.32zm-2.05-1.817l-.499.301.114-.588-.416-.44.563-.023.238-.549.238.549h.561l-.414.463.125.588-.51-.301zm.54 2.144l-.312.188.071-.367-.26-.275.352-.015.15-.343.148.343h.35l-.258.29.078.367-.319-.188zm-.569 2.201l-.748.452.17-.882-.622-.66.843-.035.357-.823.357.823h.843l-.622.695.187.882-.765-.452z"/></g></g></svg>
